Numix-GalliumOS/16/status/megasync-status-syncing.svg

<?xml version="1.0" encoding="UTF-8" standalone="no"?>
<svg
   xmlns:dc="http://purl.org/dc/elements/1.1/"
   xmlns:cc="http://creativecommons.org/ns#"
   xmlns:rdf="http://www.w3.org/1999/02/22-rdf-syntax-ns#"
   xmlns:svg="http://www.w3.org/2000/svg"
   xmlns="http://www.w3.org/2000/svg"
   xmlns:sodipodi="http://sodipodi.sourceforge.net/DTD/sodipodi-0.dtd"
   xmlns:inkscape="http://www.inkscape.org/namespaces/inkscape"
   width="16"
   viewBox="0 0 4.5155556 4.5155556"
   height="16"
   id="svg2"
   version="1.1"
   inkscape:version="0.91 r"
   sodipodi:docname="megasync-status-syncing.svg">
  <metadata
     id="metadata399">
    <rdf:RDF>
      <cc:Work
         rdf:about="">
        <dc:format>image/svg+xml</dc:format>
        <dc:type
           rdf:resource="http://purl.org/dc/dcmitype/StillImage" />
        <dc:title />
      </cc:Work>
    </rdf:RDF>
  </metadata>
  <sodipodi:namedview
     pagecolor="#ffffff"
     bordercolor="#666666"
     borderopacity="1"
     objecttolerance="10"
     gridtolerance="10"
     guidetolerance="10"
     inkscape:pageopacity="0"
     inkscape:pageshadow="2"
     inkscape:window-width="1920"
     inkscape:window-height="1056"
     id="namedview397"
     showgrid="true"
     inkscape:zoom="7.151421"
     inkscape:cx="-42.264184"
     inkscape:cy="1.3915104"
     inkscape:window-x="0"
     inkscape:window-y="24"
     inkscape:window-maximized="1"
     inkscape:current-layer="svg2"
     inkscape:object-paths="true"
     inkscape:snap-intersection-paths="true"
     inkscape:object-nodes="true"
     inkscape:snap-smooth-nodes="true"
     inkscape:snap-midpoints="true"
     inkscape:snap-object-midpoints="true"
     inkscape:snap-center="true">
    <inkscape:grid
       type="xygrid"
       id="grid3000" />
  </sodipodi:namedview>
  <defs
     id="defs4">
    <clipPath
       id="clipPath-408241621">
      <g
         transform="translate(0,-1004.3622)"
         id="g3616">
        <path
           style="fill:#1890d0"
           inkscape:connector-curvature="0"
           d="m -24,13 c 0,1.105 -0.672,2 -1.5,2 -0.828,0 -1.5,-0.895 -1.5,-2 0,-1.105 0.672,-2 1.5,-2 0.828,0 1.5,0.895 1.5,2 z"
           transform="matrix(15.333333,0,0,11.5,414.99999,878.8622)"
           id="path3618" />
      </g>
    </clipPath>
    <clipPath
       id="clipPath-408241621-1">
      <g
         transform="translate(0,-1004.3622)"
         id="g3616-0">
        <path
           style="fill:#1890d0"
           inkscape:connector-curvature="0"
           d="m -24,13 c 0,1.105 -0.672,2 -1.5,2 -0.828,0 -1.5,-0.895 -1.5,-2 0,-1.105 0.672,-2 1.5,-2 0.828,0 1.5,0.895 1.5,2 z"
           transform="matrix(15.333333,0,0,11.5,414.99999,878.8622)"
           id="path3618-5" />
      </g>
    </clipPath>
  </defs>
  <path
     style="opacity:1;fill:#ececec;fill-opacity:1;fill-rule:nonzero;stroke:none;stroke-width:0.21166666;stroke-linecap:butt;stroke-linejoin:miter;stroke-miterlimit:4;stroke-dasharray:none;stroke-dashoffset:0;stroke-opacity:1"
     d="m 2.2577777,0.28222219 c -1.0910691,-6e-8 -1.97555558,0.88448641 -1.97555548,1.97555541 -3e-8,0.3966234 0.11809455,0.7651334 0.31929144,1.074594 L 1.2555306,2.022891 l 0.014469,-0.030386 0,-0.020257 L 1.0640522,1.853599 1.1870421,1.6399343 C 1.2119801,1.5967413 1.2404691,1.5562563 1.2700001,1.5169444 1.5110132,1.1961062 1.8963216,1.00799 2.3031152,1.0230554 2.619084,1.0347572 2.8603823,1.2437764 3.077228,1.4605137 L 3.9135593,1.1827012 C 3.5612287,0.64117756 2.9519869,0.28222216 2.2577777,0.28222219 Z m 1.6562639,0.90096131 -0.6684862,1.3403489 0,0.019775 0.2059477,0.1186492 -0.1229897,0.2136646 C 3.3035759,2.9188139 3.2750859,2.9592992 3.2455556,2.9986107 3.0045421,3.319449 2.6192339,3.5075652 2.2124402,3.4924998 1.8964723,3.4807971 1.6551731,3.2717784 1.4383274,3.0550417 L 0.60247826,3.3333365 c 0.3523867,0.5412137 0.96132704,0.8999966 1.65529944,0.8999966 1.0910691,0 1.9755554,-0.8844863 1.9755554,-1.9755555 0,-0.3966232 -0.1180945,-0.7651334 -0.3192915,-1.0745941 z"
     id="path4138"
     inkscape:connector-curvature="0" />
  <g
     id="g4161"
     transform="matrix(0.24694443,0,0,0.24694443,-4.7984665,-0.24253464)">
    <path
       id="path22"
       d="m 28.720703,6.1249998 c 1.308665,0.048466 2.499789,0.7371834 3.203125,1.8183593 L 33.3125,7.4804685 31.740234,10.626953 28.595703,9.0527341 29.873047,8.6269529 C 29.534785,8.3329009 29.111948,8.1422398 28.646484,8.1249998 27.904043,8.0975038 27.21132,8.4796317 26.839844,9.1230467 l -1.732422,-1 c 0.740096,-1.2818842 2.134103,-2.0528279 3.613281,-1.9980469 z m -3.3125,3.4980471 3.144531,1.5742181 -1.277343,0.425782 c 0.338262,0.294052 0.7611,0.484713 1.226562,0.501953 0.742443,0.0275 1.435165,-0.354632 1.806641,-0.998047 l 1.732422,1 C 31.30092,13.408837 29.906913,14.179781 28.427734,14.125 27.11907,14.07653 25.927946,13.387816 25.22461,12.306641 l -1.388672,0.46289 z"
       style="opacity:1;fill:#ececec;fill-opacity:1;fill-rule:nonzero;stroke:none"
       inkscape:connector-curvature="0"
       sodipodi:nodetypes="scccccsccscccsccsccc" />
    <g
       transform="matrix(1.25,0,0,-1.25,-129.20625,298.11625)"
       id="g48" />
    <g
       transform="matrix(0.42297932,0,0,0.42297932,-11.083711,3.1945516)"
       clip-path="url(#clipPath-408241621)"
       id="g3650">
      <!-- color: #004794 -->
      <g
         id="g3652" />
    </g>
  </g>
  <g
     id="g4161-5"
     transform="matrix(0.28222222,0,0,0.28222222,-4.9598351,-1.4463887)"
     style="stroke:#000000;stroke-width:1;stroke-miterlimit:4;stroke-dasharray:none;stroke-opacity:1">
    <g
       transform="matrix(1.25,0,0,-1.25,-129.20625,298.11625)"
       id="g48-0"
       style="stroke:#000000;stroke-width:0.80000001;stroke-miterlimit:4;stroke-dasharray:none;stroke-opacity:1" />
    <g
       transform="matrix(0.42297932,0,0,0.42297932,-11.083711,3.1945516)"
       clip-path="url(#clipPath-408241621-1)"
       id="g3650-9"
       style="stroke:#000000;stroke-width:2.36418176;stroke-miterlimit:4;stroke-dasharray:none;stroke-opacity:1">
      <!-- color: #004794 -->
      <g
         id="g3652-0"
         style="stroke:#000000;stroke-width:2.36418176;stroke-miterlimit:4;stroke-dasharray:none;stroke-opacity:1" />
    </g>
  </g>
</svg>

<svg xmlns="http://www.w3.org/2000/svg" width="16" viewBox="0 0 4.5155556 4.5155556" height="16">
 <path d="m 2.258 0.282 c -1.091 0 -1.976 0.884 -1.976 1.976 0 0.397 0.118 0.765 0.319 1.075 l 0.654 -1.309 l 0.014 -0.03 0 -0.02 l -0.206 -0.119 0.123 -0.214 c 0.025 -0.043 0.053 -0.084 0.083 -0.123 0.241 -0.321 0.626 -0.509 1.033 -0.494 0.316 0.012 0.557 0.221 0.774 0.437 l 0.836 -0.278 c -0.352 -0.542 -0.962 -0.9 -1.656 -0.9 m 1.656 0.901 -0.668 1.34 0 0.02 0.206 0.119 -0.123 0.214 c -0.025 0.043 -0.053 0.084 -0.083 0.123 -0.241 0.321 -0.626 0.509 -1.033 0.494 -0.316 -0.012 -0.557 -0.221 -0.774 -0.437 l -0.836 0.278 c 0.352 0.541 0.961 0.9 1.655 0.9 1.091 0 1.976 -0.884 1.976 -1.976 0 -0.397 -0.118 -0.765 -0.319 -1.075 z" style="fill:#ececec;opacity:1;fill-opacity:1;stroke:none;fill-rule:nonzero"/>
 <g transform="matrix(0.24694443,0,0,0.24694443,-4.7984665,-0.24253464)">
  <path d="m 28.721 6.125 c 1.309 0.048 2.5 0.737 3.203 1.818 l 1.389 -0.463 -1.572 3.146 -3.145 -1.574 1.277 -0.426 c -0.338 -0.294 -0.761 -0.485 -1.227 -0.502 -0.742 -0.027 -1.435 0.355 -1.807 0.998 l -1.732 -1 c 0.74 -1.282 2.134 -2.053 3.613 -1.998 z m -3.313 3.498 3.145 1.574 -1.277 0.426 c 0.338 0.294 0.761 0.485 1.227 0.502 0.742 0.027 1.435 -0.355 1.807 -0.998 l 1.732 1 c -0.74 1.282 -2.134 2.053 -3.613 1.998 -1.309 -0.048 -2.5 -0.737 -3.203 -1.818 l -1.389 0.463 z" style="fill:#ececec;opacity:1;fill-opacity:1;stroke:none;fill-rule:nonzero"/>
  <g transform="matrix(0.42297932,0,0,0.42297932,-11.083711,3.1945516)">
   <!-- color: #004794 -->
  </g>
 </g>
 <g transform="matrix(0.28222222,0,0,0.28222222,-4.9598351,-1.4463887)" style="stroke-dasharray:none;stroke-opacity:1;stroke-miterlimit:4;stroke:#000;stroke-width:1">
  <g transform="matrix(0.42297932,0,0,0.42297932,-11.083711,3.1945516)" style="stroke:#000;stroke-width:2.364">
   <!-- color: #004794 -->
  </g>
 </g>
</svg>
